src/components/sections/images/img_icon_60x60.svg

<svg width="24" height="24" viewBox="0 0 24 24" fill="none" xmlns="http://www.w3.org/2000/svg">
<path d="M10.5 2C10.5 1.44772 10.0523 1 9.5 1C8.94772 1 8.5 1.44772 8.5 2V3H2.5C1.94772 3 1.5 3.44772 1.5 4C1.5 4.55228 1.94772 5 2.5 5H12.3544C12.3349 5.10343 12.3128 5.21327 12.2879 5.32898C12.098 6.21276 11.7463 7.42962 11.1016 8.74829C10.5761 9.82327 9.85543 10.9681 8.86369 12.0584C7.98537 10.9571 7.14265 9.64209 6.40481 8.07419C6.16965 7.57448 5.57391 7.36001 5.0742 7.59517C4.57448 7.83033 4.36001 8.42607 4.59517 8.92579C5.43282 10.7058 6.39852 12.1958 7.40869 13.4406C6.16139 14.4641 4.60736 15.3779 2.66965 16.0561C2.14837 16.2386 1.87369 16.8091 2.05614 17.3304C2.23859 17.8516 2.80907 18.1263 3.33035 17.9439C5.54162 17.1699 7.31901 16.1151 8.74613 14.9302C9.53094 15.7201 10.3204 16.3796 11.0779 16.9284L9.09786 21.0685C8.85957 21.5668 9.0703 22.1638 9.56854 22.4021C10.0668 22.6404 10.6638 22.4297 10.9021 21.9314L12.7733 18.019C13.6331 18.506 14.3956 18.842 14.9882 19.0675C15.375 19.2146 15.6901 19.3149 15.9136 19.3796L16.2905 19.4778C16.8305 19.5935 17.3621 19.2495 17.4778 18.7095C17.5933 18.1705 17.2509 17.6399 16.7126 17.5229L16.7112 17.5226L16.7055 17.5212C16.6977 17.5194 16.6834 17.516 16.6629 17.5109C16.6221 17.5007 16.5567 17.4836 16.4692 17.4583C16.2942 17.4077 16.0312 17.3244 15.6993 17.1982C15.1636 16.9943 14.4503 16.6793 13.6385 16.2099L15.9805 11.3131L20.5829 21.8987C20.8031 22.4052 21.3922 22.6373 21.8987 22.4171C22.4052 22.1969 22.6373 21.6077 22.4171 21.1013L17.6204 10.0689C17.3382 9.41982 16.6978 8.99999 15.9901 8.99999C15.3055 8.99999 14.6818 9.3931 14.3864 10.0107L11.9569 15.0905C11.3847 14.6564 10.7929 14.1491 10.2016 13.5575C11.4032 12.2706 12.2725 10.9069 12.8984 9.62671C13.6287 8.13288 14.027 6.75599 14.2433 5.74914C14.3033 5.46997 14.3495 5.2185 14.3849 5H16.5C17.0523 5 17.5 4.55228 17.5 4C17.5 3.44772 17.0523 3 16.5 3H10.5V2Z" fill="black"/>
</svg>

<svg width="24" height="24" fill="none" xmlns="http://www.w3.org/2000/svg"><path d="M10.5 2a1 1 0 1 0-2 0v1h-6a1 1 0 0 0 0 2h9.854c-.02.103-.041.213-.066.329-.19.884-.542 2.1-1.186 3.42a14.125 14.125 0 0 1-2.238 3.31 20.055 20.055 0 0 1-2.46-3.985 1 1 0 0 0-1.809.852A21.987 21.987 0 0 0 7.41 13.44c-1.248 1.023-2.802 1.937-4.74 2.615a1 1 0 0 0 .661 1.888c2.212-.774 3.989-1.829 5.416-3.014a19.01 19.01 0 0 0 2.332 1.998l-1.98 4.14a1 1 0 1 0 1.804.863l1.871-3.912c.86.487 1.623.823 2.215 1.049.387.147.702.247.926.312l.377.098a1 1 0 0 0 .422-1.955h-.002l-.005-.002a10.027 10.027 0 0 1-1.006-.323 14.326 14.326 0 0 1-2.061-.988l2.341-4.897L20.584 21.9a1 1 0 1 0 1.834-.798L17.62 10.07a1.778 1.778 0 0 0-3.234-.058l-2.43 5.08a17.064 17.064 0 0 1-1.754-1.534 16.13 16.13 0 0 0 2.696-3.93 17.057 17.057 0 0 0 1.345-3.878c.06-.279.107-.53.142-.749H16.5a1 1 0 1 0 0-2h-6V2z" fill="#000"/></svg>
